dist/img/logo320.svg

<svg width="113" height="19" viewBox="0 0 113 19" fill="none" xmlns="http://www.w3.org/2000/svg">
<path d="M9.20215 10.4316C9.20215 11.1934 9.01758 11.8555 8.64844 12.418C8.2793 12.9805 7.74023 13.4141 7.03125 13.7188C6.32812 14.0234 5.47266 14.1758 4.46484 14.1758C4.01953 14.1758 3.58301 14.1465 3.15527 14.0879C2.7334 14.0293 2.32617 13.9443 1.93359 13.833C1.54688 13.7158 1.17773 13.5723 0.826172 13.4023V10.8711C1.43555 11.1406 2.06836 11.3838 2.72461 11.6006C3.38086 11.8174 4.03125 11.9258 4.67578 11.9258C5.12109 11.9258 5.47852 11.8672 5.74805 11.75C6.02344 11.6328 6.22266 11.4717 6.3457 11.2666C6.46875 11.0615 6.53027 10.8271 6.53027 10.5635C6.53027 10.2412 6.42188 9.96582 6.20508 9.7373C5.98828 9.50879 5.68945 9.29492 5.30859 9.0957C4.93359 8.89648 4.50879 8.68262 4.03418 8.4541C3.73535 8.31348 3.41016 8.14355 3.05859 7.94434C2.70703 7.73926 2.37305 7.49023 2.05664 7.19727C1.74023 6.9043 1.47949 6.5498 1.27441 6.13379C1.0752 5.71191 0.975586 5.20801 0.975586 4.62207C0.975586 3.85449 1.15137 3.19824 1.50293 2.65332C1.85449 2.1084 2.35547 1.69238 3.00586 1.40527C3.66211 1.1123 4.43555 0.96582 5.32617 0.96582C5.99414 0.96582 6.62988 1.04492 7.2334 1.20312C7.84277 1.35547 8.47852 1.57813 9.14062 1.87109L8.26172 3.98926C7.66992 3.74902 7.13965 3.56445 6.6709 3.43555C6.20215 3.30078 5.72461 3.2334 5.23828 3.2334C4.89844 3.2334 4.6084 3.28906 4.36816 3.40039C4.12793 3.50586 3.94629 3.6582 3.82324 3.85742C3.7002 4.05078 3.63867 4.27637 3.63867 4.53418C3.63867 4.83887 3.72656 5.09668 3.90234 5.30762C4.08398 5.5127 4.35352 5.71191 4.71094 5.90527C5.07422 6.09863 5.52539 6.32422 6.06445 6.58203C6.7207 6.89258 7.28027 7.21777 7.74316 7.55762C8.21191 7.8916 8.57227 8.28711 8.82422 8.74414C9.07617 9.19531 9.20215 9.75781 9.20215 10.4316ZM15.081 0.324219V3.11035C15.081 3.59668 15.0634 4.05957 15.0282 4.49902C14.9989 4.93848 14.9755 5.24902 14.9579 5.43066H15.0986C15.3095 5.09082 15.5585 4.81543 15.8456 4.60449C16.1386 4.39355 16.4609 4.23828 16.8124 4.13867C17.164 4.03906 17.5419 3.98926 17.9462 3.98926C18.6552 3.98926 19.2734 4.11523 19.8007 4.36719C20.328 4.61328 20.7382 5.00293 21.0312 5.53613C21.3241 6.06348 21.4706 6.74902 21.4706 7.59277V14H18.79V8.26074C18.79 7.55762 18.6611 7.02734 18.4032 6.66992C18.1454 6.3125 17.747 6.13379 17.2079 6.13379C16.6689 6.13379 16.2441 6.25977 15.9335 6.51172C15.623 6.75781 15.4032 7.12402 15.2743 7.61035C15.1454 8.09082 15.081 8.67969 15.081 9.37695V14H12.4003V0.324219H15.081ZM34.2401 9.06934C34.2401 9.88965 34.1287 10.6162 33.9061 11.249C33.6893 11.8818 33.37 12.418 32.9481 12.8574C32.5321 13.291 32.0282 13.6191 31.4364 13.8418C30.8504 14.0645 30.1883 14.1758 29.45 14.1758C28.7586 14.1758 28.1229 14.0645 27.5428 13.8418C26.9686 13.6191 26.4676 13.291 26.0399 12.8574C25.618 12.418 25.2899 11.8818 25.0555 11.249C24.827 10.6162 24.7127 9.88965 24.7127 9.06934C24.7127 7.97949 24.9061 7.05664 25.2928 6.30078C25.6795 5.54492 26.2303 4.9707 26.9452 4.57812C27.66 4.18555 28.5125 3.98926 29.5028 3.98926C30.4227 3.98926 31.2371 4.18555 31.9461 4.57812C32.661 4.9707 33.2205 5.54492 33.6248 6.30078C34.035 7.05664 34.2401 7.97949 34.2401 9.06934ZM27.4461 9.06934C27.4461 9.71387 27.5164 10.2559 27.6571 10.6953C27.7977 11.1348 28.0174 11.4658 28.3162 11.6885C28.6151 11.9111 29.0047 12.0225 29.4852 12.0225C29.9598 12.0225 30.3436 11.9111 30.6366 11.6885C30.9354 11.4658 31.1522 11.1348 31.287 10.6953C31.4276 10.2559 31.4979 9.71387 31.4979 9.06934C31.4979 8.41895 31.4276 7.87988 31.287 7.45215C31.1522 7.01855 30.9354 6.69336 30.6366 6.47656C30.3377 6.25977 29.9481 6.15137 29.4676 6.15137C28.7586 6.15137 28.243 6.39453 27.9207 6.88086C27.6043 7.36719 27.4461 8.09668 27.4461 9.06934ZM43.0017 3.98926C44.1091 3.98926 45.0027 4.41992 45.6824 5.28125C46.3679 6.14258 46.7107 7.40527 46.7107 9.06934C46.7107 10.1826 46.5496 11.1201 46.2273 11.8818C45.905 12.6377 45.4597 13.209 44.8914 13.5957C44.323 13.9824 43.6697 14.1758 42.9314 14.1758C42.4568 14.1758 42.0496 14.1172 41.7097 14C41.3699 13.877 41.0798 13.7217 40.8396 13.5342C40.5994 13.3408 40.3914 13.1357 40.2156 12.9189H40.075C40.1218 13.1533 40.157 13.3936 40.1804 13.6396C40.2039 13.8857 40.2156 14.126 40.2156 14.3604V18.3242H37.5349V4.17383H39.7146L40.0925 5.44824H40.2156C40.3914 5.18457 40.6052 4.94141 40.8572 4.71875C41.1091 4.49609 41.4109 4.32031 41.7625 4.19141C42.1199 4.05664 42.533 3.98926 43.0017 3.98926ZM42.1404 6.13379C41.6716 6.13379 41.2996 6.23047 41.0242 6.42383C40.7488 6.61719 40.5466 6.90723 40.4177 7.29395C40.2947 7.68066 40.2273 8.16992 40.2156 8.76172V9.05176C40.2156 9.68457 40.2742 10.2207 40.3914 10.6602C40.5144 11.0996 40.7166 11.4336 40.9978 11.6621C41.2849 11.8906 41.6775 12.0049 42.1755 12.0049C42.5857 12.0049 42.9226 11.8906 43.1863 11.6621C43.45 11.4336 43.6463 11.0996 43.7752 10.6602C43.9099 10.2148 43.9773 9.67285 43.9773 9.03418C43.9773 8.07324 43.8279 7.34961 43.5291 6.86328C43.2302 6.37695 42.7673 6.13379 42.1404 6.13379Z" fill="#2D2D2D"/>
<path d="M61.8796 7.55762C61.8796 8.54785 61.7565 9.4502 61.5104 10.2646C61.2643 11.0732 60.8893 11.7705 60.3854 12.3564C59.8874 12.9424 59.2546 13.3936 58.487 13.71C57.7194 14.0205 56.8112 14.1758 55.7624 14.1758C54.7136 14.1758 53.8054 14.0205 53.0378 13.71C52.2702 13.3936 51.6345 12.9424 51.1305 12.3564C50.6325 11.7705 50.2604 11.0703 50.0143 10.2559C49.7682 9.44141 49.6452 8.53613 49.6452 7.54004C49.6452 6.20996 49.862 5.05273 50.2956 4.06836C50.735 3.07812 51.4089 2.31055 52.3171 1.76562C53.2253 1.2207 54.3796 0.948242 55.78 0.948242C57.1745 0.948242 58.32 1.2207 59.2165 1.76562C60.1188 2.31055 60.7868 3.07812 61.2204 4.06836C61.6598 5.05859 61.8796 6.22168 61.8796 7.55762ZM52.5016 7.55762C52.5016 8.4541 52.613 9.22754 52.8356 9.87793C53.0641 10.5225 53.4186 11.0205 53.8991 11.3721C54.3796 11.7178 55.0007 11.8906 55.7624 11.8906C56.5358 11.8906 57.1628 11.7178 57.6432 11.3721C58.1237 11.0205 58.4723 10.5225 58.6891 9.87793C58.9118 9.22754 59.0231 8.4541 59.0231 7.55762C59.0231 6.20996 58.7712 5.14941 58.2673 4.37598C57.7634 3.60254 56.9343 3.21582 55.78 3.21582C55.0124 3.21582 54.3854 3.3916 53.8991 3.74316C53.4186 4.08887 53.0641 4.58691 52.8356 5.2373C52.613 5.88184 52.5016 6.65527 52.5016 7.55762ZM70.9928 3.98926C72.0416 3.98926 72.8854 4.27637 73.524 4.85059C74.1627 5.41895 74.482 6.33301 74.482 7.59277V14H71.8014V8.26074C71.8014 7.55762 71.6725 7.02734 71.4146 6.66992C71.1627 6.3125 70.7643 6.13379 70.2193 6.13379C69.399 6.13379 68.8395 6.41211 68.5406 6.96875C68.2418 7.52539 68.0924 8.32812 68.0924 9.37695V14H65.4117V4.17383H67.4596L67.8199 5.43066H67.9693C68.1803 5.09082 68.441 4.81543 68.7516 4.60449C69.068 4.39355 69.4166 4.23828 69.7975 4.13867C70.1842 4.03906 70.5826 3.98926 70.9928 3.98926ZM81.0025 14H78.3218V0.324219H81.0025V14ZM87.5844 4.17383V14H84.9037V4.17383H87.5844ZM86.2485 0.324219C86.6469 0.324219 86.9897 0.417969 87.2768 0.605469C87.5639 0.787109 87.7075 1.12988 87.7075 1.63379C87.7075 2.13184 87.5639 2.47754 87.2768 2.6709C86.9897 2.8584 86.6469 2.95215 86.2485 2.95215C85.8442 2.95215 85.4985 2.8584 85.2114 2.6709C84.9301 2.47754 84.7895 2.13184 84.7895 1.63379C84.7895 1.12988 84.9301 0.787109 85.2114 0.605469C85.4985 0.417969 85.8442 0.324219 86.2485 0.324219ZM97.0668 3.98926C98.1156 3.98926 98.9593 4.27637 99.598 4.85059C100.237 5.41895 100.556 6.33301 100.556 7.59277V14H97.8754V8.26074C97.8754 7.55762 97.7464 7.02734 97.4886 6.66992C97.2367 6.3125 96.8382 6.13379 96.2933 6.13379C95.473 6.13379 94.9134 6.41211 94.6146 6.96875C94.3158 7.52539 94.1664 8.32812 94.1664 9.37695V14H91.4857V4.17383H93.5336L93.8939 5.43066H94.0433C94.2543 5.09082 94.515 4.81543 94.8255 4.60449C95.142 4.39355 95.4906 4.23828 95.8714 4.13867C96.2582 4.03906 96.6566 3.98926 97.0668 3.98926ZM108.448 3.98926C109.356 3.98926 110.138 4.16504 110.794 4.5166C111.45 4.8623 111.957 5.36621 112.315 6.02832C112.672 6.69043 112.851 7.49902 112.851 8.4541V9.75488H106.514C106.543 10.5107 106.769 11.1055 107.191 11.5391C107.618 11.9668 108.21 12.1807 108.966 12.1807C109.593 12.1807 110.167 12.1162 110.689 11.9873C111.21 11.8584 111.746 11.665 112.297 11.4072V13.4814C111.811 13.7217 111.301 13.8975 110.768 14.0088C110.241 14.1201 109.599 14.1758 108.843 14.1758C107.859 14.1758 106.986 13.9941 106.224 13.6309C105.468 13.2676 104.873 12.7139 104.44 11.9697C104.012 11.2256 103.798 10.2881 103.798 9.15723C103.798 8.00879 103.991 7.05371 104.378 6.29199C104.771 5.52441 105.316 4.9502 106.013 4.56934C106.71 4.18262 107.522 3.98926 108.448 3.98926ZM108.465 5.89648C107.944 5.89648 107.51 6.06348 107.164 6.39746C106.824 6.73145 106.628 7.25586 106.575 7.9707H110.337C110.331 7.57227 110.258 7.21777 110.117 6.90723C109.983 6.59668 109.778 6.35059 109.502 6.16895C109.233 5.9873 108.887 5.89648 108.465 5.89648Z" fill="#3670C7"/>
</svg>

<svg width="113" height="19" fill="none" xmlns="http://www.w3.org/2000/svg"><path d="M9.202 10.432c0 .761-.184 1.423-.554 1.986-.369.563-.908.996-1.617 1.3-.703.305-1.558.458-2.566.458-.445 0-.882-.03-1.31-.088a9.027 9.027 0 0 1-1.221-.255 7.608 7.608 0 0 1-1.108-.43V10.87c.61.27 1.242.513 1.899.73a6.192 6.192 0 0 0 1.95.325c.446 0 .804-.059 1.073-.176.275-.117.475-.278.598-.483a1.34 1.34 0 0 0 .184-.704c0-.322-.108-.597-.325-.826-.217-.228-.516-.442-.896-.641-.375-.2-.8-.413-1.275-.642-.299-.14-.624-.31-.975-.51a5.709 5.709 0 0 1-1.002-.747 3.602 3.602 0 0 1-.783-1.063c-.199-.422-.298-.926-.298-1.512 0-.768.175-1.424.527-1.969.351-.545.852-.96 1.503-1.248.656-.293 1.43-.44 2.32-.44.668 0 1.304.08 1.907.238.61.152 1.246.375 1.908.668L8.26 3.99a14.562 14.562 0 0 0-1.59-.553 5.16 5.16 0 0 0-1.433-.203c-.34 0-.63.056-.87.167-.24.106-.422.258-.545.457a1.233 1.233 0 0 0-.184.677c0 .305.088.563.263.774.182.205.452.404.809.597.363.194.814.42 1.353.677.657.31 1.216.636 1.68.976.468.334.828.73 1.08 1.186.252.451.378 1.014.378 1.688ZM15.081.324V3.11c0 .487-.018.95-.053 1.389-.03.44-.053.75-.07.932h.14c.211-.34.46-.616.748-.827.293-.21.615-.366.966-.465.352-.1.73-.15 1.134-.15.71 0 1.327.126 1.855.378.527.246.937.636 1.23 1.17.293.526.44 1.212.44 2.056V14H18.79V8.26c0-.702-.129-1.233-.387-1.59s-.656-.536-1.195-.536c-.54 0-.964.126-1.274.378-.311.246-.53.612-.66 1.098-.129.48-.193 1.07-.193 1.767V14h-2.68V.324h2.68Zm19.16 8.745c0 .82-.112 1.547-.335 2.18a4.294 4.294 0 0 1-.958 1.608c-.416.434-.92.762-1.512.985-.586.223-1.248.334-1.986.334a5.28 5.28 0 0 1-1.907-.334 4.24 4.24 0 0 1-1.503-.985 4.59 4.59 0 0 1-.985-1.608c-.228-.633-.342-1.36-.342-2.18 0-1.09.193-2.012.58-2.768a3.98 3.98 0 0 1 1.652-1.723c.715-.392 1.567-.589 2.558-.589.92 0 1.734.197 2.443.59.715.392 1.274.966 1.679 1.722.41.756.615 1.678.615 2.768Zm-6.795 0c0 .645.07 1.187.211 1.626.14.44.36.77.66.993.298.223.688.335 1.168.335.475 0 .859-.112 1.152-.335.298-.222.515-.553.65-.993.14-.44.21-.981.21-1.626 0-.65-.07-1.19-.21-1.617-.135-.433-.352-.759-.65-.975-.3-.217-.689-.326-1.17-.326-.708 0-1.224.244-1.546.73-.317.486-.475 1.216-.475 2.188Zm15.556-5.08c1.107 0 2 .43 2.68 1.292.686.862 1.029 2.124 1.029 3.788 0 1.114-.161 2.051-.484 2.813-.322.756-.767 1.327-1.336 1.714-.568.386-1.221.58-1.96.58-.474 0-.881-.059-1.221-.176a3.14 3.14 0 0 1-.87-.466 4.146 4.146 0 0 1-.624-.615h-.141a7.583 7.583 0 0 1 .14 1.441v3.964h-2.68V4.174h2.18l.377 1.274h.124c.175-.263.39-.507.641-.73.252-.222.554-.398.906-.527a3.5 3.5 0 0 1 1.239-.202Zm-.862 2.145c-.468 0-.84.096-1.116.29-.275.193-.477.483-.606.87-.123.387-.19.876-.202 1.468v.29c0 .633.058 1.169.175 1.608.123.44.326.774.607 1.002.287.229.68.343 1.178.343.41 0 .747-.114 1.01-.343.264-.228.46-.562.59-1.002.134-.445.201-.987.201-1.626 0-.96-.15-1.684-.448-2.17-.299-.487-.762-.73-1.389-.73Z" fill="#2D2D2D"/><path d="M61.88 7.558c0 .99-.123 1.892-.37 2.707a5.714 5.714 0 0 1-1.125 2.091c-.498.586-1.13 1.038-1.898 1.354-.768.31-1.676.466-2.725.466-1.048 0-1.957-.155-2.724-.466a4.964 4.964 0 0 1-1.907-1.354c-.498-.585-.87-1.286-1.117-2.1-.246-.815-.369-1.72-.369-2.716 0-1.33.217-2.487.65-3.472a4.965 4.965 0 0 1 2.022-2.302c.908-.545 2.063-.818 3.463-.818 1.395 0 2.54.273 3.437.818a4.93 4.93 0 0 1 2.003 2.302c.44.99.66 2.154.66 3.49Zm-9.378 0c0 .896.111 1.67.334 2.32.228.645.583 1.143 1.063 1.494.48.346 1.102.519 1.863.519.774 0 1.4-.173 1.881-.519.48-.351.83-.85 1.046-1.494.223-.65.334-1.424.334-2.32 0-1.348-.252-2.409-.756-3.182-.504-.773-1.333-1.16-2.487-1.16-.768 0-1.395.176-1.88.527-.481.346-.836.844-1.064 1.494-.223.645-.334 1.418-.334 2.32Zm18.49-3.569c1.05 0 1.893.287 2.532.862.639.568.958 1.482.958 2.742V14h-2.68V8.26c0-.702-.13-1.233-.387-1.59-.252-.357-.65-.536-1.196-.536-.82 0-1.38.278-1.678.835-.3.556-.449 1.36-.449 2.408V14h-2.68V4.174h2.048l.36 1.257h.15a2.71 2.71 0 0 1 .782-.827 3.44 3.44 0 0 1 1.046-.465c.386-.1.785-.15 1.195-.15ZM81.003 14h-2.68V.324h2.68V14Zm6.582-9.826V14h-2.68V4.174h2.68ZM86.25.324c.398 0 .74.094 1.028.281.287.182.43.525.43 1.029 0 .498-.143.844-.43 1.037-.287.187-.63.281-1.028.281-.405 0-.75-.094-1.038-.281-.28-.193-.421-.54-.421-1.037 0-.504.14-.847.421-1.029.288-.187.633-.28 1.038-.28ZM97.067 3.99c1.049 0 1.892.287 2.531.862.639.568.958 1.482.958 2.742V14h-2.68V8.26c0-.702-.13-1.233-.387-1.59-.252-.357-.65-.536-1.196-.536-.82 0-1.38.278-1.678.835-.3.556-.449 1.36-.449 2.408V14h-2.68V4.174h2.048l.36 1.257h.15c.21-.34.471-.616.782-.827.316-.21.665-.366 1.045-.465.387-.1.786-.15 1.196-.15Zm11.381 0c.908 0 1.69.176 2.346.528a3.61 3.61 0 0 1 1.521 1.511c.357.662.536 1.471.536 2.426v1.3h-6.337c.029.757.255 1.351.677 1.785.427.428 1.019.642 1.775.642.627 0 1.201-.065 1.723-.194a8.782 8.782 0 0 0 1.608-.58v2.074c-.486.24-.996.417-1.529.528-.527.111-1.169.167-1.925.167-.984 0-1.857-.182-2.619-.545a4.064 4.064 0 0 1-1.784-1.661c-.428-.744-.642-1.682-.642-2.813 0-1.148.193-2.103.58-2.865.393-.768.938-1.342 1.635-1.723.697-.386 1.509-.58 2.435-.58Zm.017 1.907c-.521 0-.955.167-1.301.501-.34.334-.536.859-.589 1.574h3.762a2.645 2.645 0 0 0-.22-1.064 1.642 1.642 0 0 0-.615-.738c-.269-.182-.615-.273-1.037-.273Z" fill="#3670C7"/></svg>
